!!!OTL: Jagen, Fuerstenlust.
!!!OTL-incipit: WAS IST DOCH AUF DIESER WELT
!!!COM: Volksweise
!!!ARE: Europa, Mitteleuropa, Deutschland
!!!SCT: F0639
!!!TXL: @@DE
!!!YEM: Copyright 1995, estate of Helmut Schaffrath.
**kern	**text
*ICvox	*
*clefG2	*
*M4/4	*
*met(c)	*
*k[f#c#g#]	*
*A:	*
=1	=1
!LO:TX:a:t=Vornehm froh.	!
!LO:TX:a:t=P:only the highest voice encoded:problem	!
{4e	1._Was
(8f#L	iſt
8dJ)	.
4e	doch
(8f#L	auf
8dJ)	.
=2	=2
4e	die-
(8f#L	-ſer
8g#J)	.
4a	Welt?
4r}	.
=3	=3
{4.cc#/	Nichts
8a	iſt
4.a	drin,
8e	was
=4	=4
4.e	mir
8d	ge-
4c#	-fällt
4r}	.
=5	=5
{4e	nur
4f#	das
4g#	ed-
4a	-le
=6	=6
4b/	Jä-
4cc#/	-ger-
8bL	-le-
8g#J	.
4e}	-ben
=7	=7
{4g#	iſt
4a	mit
4b/	lau-
4cc#/	-ter
=8	=8
8eeqq	.
4dd/	Luſt
4cc#/	um-
4cc#/	-ge-
4b/}	-ben.
=9	=9
{4e	Wem
4e	das
4.d/d	Ja-
8cc#/	-gen
=10	=10
4.b/	iſt
8a	be-
(>4g#	-wußt
4e)}	.
=11	=11
{4.e	das
8dd/	iſt
4.cc#/	ei-
8ee/	-ne
=12	=12
8ee/L	Für-
8ddJ	.
8bL	-ſten-
8g#J	.
4a	-luſt!
4r}	.
=13	=13
{4e	Wem
4e	das
4.dd/	Ja-
8cc#/	-gen
=14	=14
4.b/	iſt
8a	be-
(>4g#	-wußt
4e)}	.
=15	=15
{4.e	das
8dd/	iſt
4.cc#/	ei-
8ee/	-ne
=16	=16
8ee/L	Für-
8ddJ	.
8bL	-ſten-
8g#J	.
4a	-luſt!
4r}	.
==	==
!!!AGN: Staende -, Jaeger - Lied
!!!ONB: ESAC (Essen Associative Code) Database: FINK
!!!AMT: simple quadruple
!!!AIN: vox
!!!EED: Helmut Schaffrath
!!!EEV: 1.0
!!!RDF**kern: > = above
!!!GTL: Soldaten- und Jaegerlieder
!!Text: Volkslied
!!!source: Musikalischer Hausschatz der Deutschen. Eine Sammlung von über 1000 Liedern und Gesängen mit Singstimmen und Klavierbegleitung. Leipzig, Litterarisches Verlags-Haus.
!!!page: 422
!!!URL-scan: https://www.digitale-sammlungen.de/en/view/bsb11144622?page=389
!!!ENC: Anna Maria Matuszewska
!!!EEV: 2024/08/05
*-	*-
